X:1
T:Hark the herald angels sing
T:Hark the herald angels sing
L:1/8
M:4/4
K:D
V:1 alto nm="Viola" snm="Vla."
V:1
 vA2 d2 .d3 .c | d2 F2 (F2 E2) | A2 A2 (.A3 .G) | F2 E2 F4 | vA2 d2 (.d3 .c) | d2 F2 (F2 E2) | %6
 vA2 d2 (.d3 .c) | c2 B2 A4 | A2 A2 A2 D2 | G2 F2 F2 E2 | A2 A2 A2 D2 | G2 F2 F2 E2 | %12
 .B3- .B B2 A2 | G2 F2 G4 | E2 (FG) (.A3 .D) | D2 E2 F4 | .B3- .B B2 A2 | G2 F2 G4 | %18
 E2 (FG) (.A3 .D) | D2 E2 uD4 |] %20

